docs/img/our-mission.svg

<svg width="682" height="430" viewBox="0 0 682 430" fill="none" xmlns="http://www.w3.org/2000/svg">
<path fill-rule="evenodd" clip-rule="evenodd" d="M0.09375 429.999V330.653C0.0569804 329.77 0.0310325 328.886 0.0159185 327.999H0V263.999H0.672461V0H682V429H261.17V430H99.6777V429.999H0.09375ZM77.1065 267.09C76.8445 266.977 76.5816 266.866 76.3178 266.758H99.6777V291.143C99.4823 290.612 99.2762 290.083 99.0593 289.557C96.9785 284.529 94.0075 280.021 90.2158 276.141C86.424 272.26 82.0196 269.22 77.1065 267.09ZM102.296 305.979C102.294 306.686 102.259 307.386 102.193 308.076V327.987H101.974V425.301C186.921 424.457 255.831 353.755 256.401 266.759H101.973V300.624C102.188 302.366 102.296 304.129 102.296 305.908V305.979ZM61.8842 305.363H98.6963C98.3798 284.68 82.0601 267.911 61.8842 267.466V305.363ZM82.1954 324.244C90.8946 323.514 97.864 316.429 98.6309 307.542H82.1954V324.244ZM99.6777 316.446C97.5675 320.407 94.3072 323.637 90.3607 325.665H99.6777V316.446ZM80.7133 327.997C80.548 327.996 80.383 327.992 80.2186 327.987H61V327.999H3.62342C4.58258 381.555 47.2257 424.868 99.6777 425.305V327.987H81.404C81.2397 327.992 81.075 327.996 80.9098 327.997H80.7133ZM80.1665 307.542V324.29C71.1317 323.905 63.7986 316.672 63.005 307.542H80.1665ZM71.2613 325.665C67.4607 323.712 64.2981 320.642 62.1856 316.88V325.665H71.2613ZM259 284.117V427.892H119.159C134.095 426.11 148.617 422.187 162.525 416.163C171.981 412.07 181.102 407.006 189.633 401.102C198.084 395.257 206.026 388.549 213.251 381.155C220.476 373.76 227.031 365.632 232.741 356.983C238.51 348.252 243.458 338.917 247.457 329.239C253.438 314.77 257.3 299.659 259 284.117ZM259 242.137C258.141 232.121 256.73 222.177 254.775 212.394C251.388 195.476 246.348 178.829 239.77 162.928C233.319 147.323 225.331 132.262 216.037 118.171C206.823 104.222 196.246 91.1008 184.593 79.1749C172.94 67.2491 160.12 56.4235 146.491 46.9941C132.734 37.4818 118.018 29.3064 102.759 22.7046C87.2217 15.9727 70.9565 10.8142 54.4255 7.3477C39.873 4.30196 24.9544 2.54559 9.97666 2.10848H259V242.137ZM261.17 426.87H679.913V2.01186H261.17L261.17 426.87ZM2.02953 266.758V310.185C2.7574 307.378 3.68043 304.619 4.79762 301.921C7.87263 294.479 12.2771 287.806 17.8722 282.068C23.4789 276.33 29.9988 271.834 37.2702 268.687C38.9395 267.965 40.6315 267.322 42.3441 266.758H2.02953ZM58.9705 267.494C28.4447 268.605 3.90676 294.223 3.60963 325.665H58.9705V267.494ZM7.89575 366.188C5.38691 360.123 3.47241 353.879 2.15733 347.496V427.891H85.6587C77.3183 426.63 69.191 424.299 61.3731 420.919C49.4084 415.737 38.6574 408.319 29.4324 398.878C20.2073 389.436 12.9591 378.433 7.89575 366.188ZM2.73604 5.67958C142.352 5.78624 255.952 121.831 256.404 264.638H101.973V264.413H68.2495C65.8904 263.99 63.4865 263.777 61.0495 263.777H61.0263C59.2812 263.777 57.5474 263.851 55.8271 263.999H2.73604V5.67958Z" fill="#E6C783"/>
<path fill-rule="evenodd" clip-rule="evenodd" d="M457.52 301.257V321.976H605.047L464.248 77L323.557 321.976H443.955V319.25H328.223L464.248 82.4524L600.273 319.25H460.179V301.42C459.31 301.366 458.388 301.311 457.52 301.257ZM312.109 348.965C313.302 349.947 314.713 350.492 316.232 350.492C317.155 350.492 317.86 350.328 318.348 350.001C318.836 349.674 319.054 349.238 319.054 348.693C319.054 348.256 318.837 347.82 318.457 347.439C318.077 347.057 317.155 346.566 315.635 345.912C314.387 345.367 313.465 344.712 312.868 344.004C312.326 343.295 312 342.477 312 341.495C312 340.132 312.543 339.042 313.573 338.279C314.659 337.515 316.015 337.134 317.751 337.134C319.271 337.134 320.518 337.352 321.387 337.733V340.569C320.41 339.914 319.216 339.533 317.806 339.533C316.992 339.533 316.341 339.696 315.798 340.023C315.31 340.35 315.038 340.787 315.038 341.332C315.038 341.768 315.201 342.15 315.581 342.531C315.907 342.913 316.775 343.349 318.023 343.949C319.488 344.603 320.519 345.258 321.115 346.021C321.712 346.73 321.983 347.602 321.983 348.584C321.983 350.001 321.495 351.146 320.464 351.855C319.433 352.618 318.023 353 316.178 353C314.442 353 313.085 352.727 312 352.128V348.965H312.109ZM357.251 339.751H352.911V352.564H349.981V339.751H345.64V337.297H357.251V339.751ZM393.713 346.13C393.713 350.655 391.651 352.891 387.473 352.891C383.512 352.891 381.504 350.71 381.504 346.348V337.352H384.434V346.348C384.434 349.02 385.465 350.328 387.636 350.328C389.697 350.328 390.728 349.02 390.728 346.457V337.352H393.658V346.13H393.713ZM419.431 352.564V337.297H424.477C429.848 337.297 432.561 339.805 432.561 344.767C432.561 347.111 431.802 349.02 430.282 350.437C428.763 351.855 426.81 352.564 424.423 352.564H419.431ZM422.361 339.751V350.11H424.206C425.833 350.11 427.135 349.62 428.058 348.693C428.98 347.766 429.414 346.457 429.414 344.767C429.414 343.131 428.98 341.877 428.058 341.059C427.135 340.187 425.888 339.751 424.26 339.751H422.361ZM460.396 337.297V352.564H457.466V337.297H460.396ZM485.354 345.149C485.354 342.75 486.06 340.787 487.416 339.315C488.773 337.842 490.617 337.079 492.896 337.079C495.066 337.079 496.803 337.788 498.105 339.26C499.407 340.732 500.058 342.586 500.058 344.821C500.058 347.22 499.353 349.129 497.996 350.655C496.64 352.128 494.849 352.891 492.625 352.891C490.455 352.891 488.664 352.182 487.362 350.71C486.06 349.238 485.354 347.384 485.354 345.149ZM488.447 344.985C488.447 346.512 488.827 347.82 489.586 348.802C490.346 349.783 491.377 350.274 492.679 350.274C494.036 350.274 495.066 349.783 495.826 348.856C496.586 347.929 496.966 346.621 496.966 344.985C496.966 343.295 496.586 341.986 495.88 341.059C495.175 340.078 494.144 339.642 492.788 339.642C491.431 339.642 490.4 340.132 489.586 341.168C488.827 342.15 488.447 343.458 488.447 344.985ZM569.291 349.456C570.322 350.219 571.516 350.601 572.818 350.601C573.686 350.601 574.392 350.383 574.934 350.001C575.477 349.62 575.748 349.02 575.748 348.256C575.748 346.675 574.554 345.857 572.167 345.857H570.811V343.622H572.059C574.175 343.622 575.26 342.859 575.26 341.386C575.26 340.023 574.446 339.315 572.818 339.315C571.787 339.315 570.811 339.642 569.834 340.35V337.897C570.865 337.352 572.059 337.079 573.469 337.079C574.88 337.079 576.019 337.406 576.888 338.06C577.756 338.715 578.19 339.642 578.19 340.841C578.19 342.804 577.159 344.058 575.151 344.603V344.658C576.182 344.767 577.05 345.149 577.701 345.803C578.353 346.457 578.678 347.275 578.678 348.202C578.678 349.62 578.135 350.765 577.105 351.582C576.074 352.4 574.663 352.836 572.981 352.836C571.462 352.836 570.214 352.564 569.291 352.073V349.456ZM612.155 337.297V347.057H614V349.183H612.155V352.564H609.497V349.183H602.877V346.948C604.288 345.367 605.536 343.676 606.729 341.986C607.923 340.241 608.845 338.715 609.442 337.297H612.155ZM605.319 347.111H609.497V341.223C609.063 341.986 608.466 342.913 607.706 344.004C606.946 345.094 606.133 346.13 605.319 347.111ZM415.47 250.004C423.989 275.522 450.575 290.188 476.619 283.755C502.608 277.266 519.374 251.858 515.088 225.305C510.801 198.752 486.928 179.887 460.233 182.013V272.795C459.31 272.686 458.442 272.577 457.52 272.414V179.505C485.843 175.906 512.103 195.044 517.475 223.233C522.847 251.422 505.593 278.957 477.921 286.208C450.304 293.46 421.818 277.866 412.866 250.659C403.913 223.397 417.532 193.845 443.955 183.104V186.048C419.322 196.625 406.951 224.487 415.47 250.004Z" fill="#E6C783"/>
</svg>

<svg width="682" height="430" viewBox="0 0 682 430" fill="none" xmlns="http://www.w3.org/2000/svg"><path fill-rule="evenodd" clip-rule="evenodd" d="M.094 429.999v-99.346a107.98 107.98 0 01-.078-2.654H0v-64h.672V0H682v429H261.17v1H99.678v-.001H.094zM77.107 267.09a45.998 45.998 0 00-.79-.332h23.36v24.385a42.16 42.16 0 00-9.462-15.002c-3.791-3.881-8.195-6.921-13.109-9.051zm25.189 38.889a22.702 22.702 0 01-.103 2.097v19.911h-.219v97.314c84.947-.844 153.857-71.546 154.427-158.542H101.973v33.865c.215 1.742.323 3.505.323 5.284v.071zm-40.412-.616h36.812c-.316-20.683-16.636-37.452-36.812-37.897v37.897zm20.311 18.881c8.7-.73 15.669-7.815 16.436-16.702H82.195v16.702zm17.483-7.798c-2.11 3.961-5.37 7.191-9.317 9.219h9.317v-9.219zm-18.965 11.551c-.165-.001-.33-.005-.494-.01H61v.012H3.623c.96 53.556 43.603 96.869 96.055 97.306v-97.318H81.404c-.164.005-.329.009-.494.01h-.197zm-.546-20.455v16.748c-9.035-.385-16.368-7.618-17.162-16.748h17.161zm-8.906 18.123c-3.8-1.953-6.963-5.023-9.075-8.785v8.785h9.075zM259 284.117v143.775H119.159c14.936-1.782 29.458-5.705 43.366-11.729a158.112 158.112 0 0027.108-15.061 161.712 161.712 0 0023.618-19.947 163.797 163.797 0 0034.206-51.916A164.666 164.666 0 00259 284.117zm0-41.98a269.32 269.32 0 00-4.225-29.743 266.596 266.596 0 00-15.005-49.466 266.2 266.2 0 00-23.733-44.757 264.586 264.586 0 00-31.444-38.996 261.147 261.147 0 00-38.102-32.18 255.42 255.42 0 00-43.732-24.29A251.833 251.833 0 0054.425 7.348a253.372 253.372 0 00-44.448-5.24H259v240.029zm2.17 184.733h418.743V2.012H261.17V426.87zM2.03 266.758v43.427a62.78 62.78 0 012.768-8.264 62.493 62.493 0 0113.074-19.853C23.48 276.33 30 271.834 37.27 268.687a60.26 60.26 0 015.074-1.929H2.03zm56.94.736c-30.525 1.111-55.063 26.729-55.36 58.171h55.36v-58.171zM7.897 366.188a103.462 103.462 0 01-5.739-18.692v80.395H85.66a97.982 97.982 0 01-24.286-6.972c-11.965-5.182-22.716-12.6-31.94-22.041-9.226-9.442-16.474-20.445-21.537-32.69zM2.736 5.68c139.616.106 253.216 116.151 253.668 258.958H101.973v-.225H68.249a40.748 40.748 0 00-7.2-.636h-.023c-1.745 0-3.479.074-5.199.222H2.736V5.679z" fill="#E6C783"/><path fill-rule="evenodd" clip-rule="evenodd" d="M457.52 301.257v20.719h147.527L464.248 77 323.557 321.976h120.398v-2.726H328.223L464.248 82.452 600.273 319.25H460.179v-17.83l-2.659-.163zm-145.411 47.708c1.193.982 2.604 1.527 4.123 1.527.923 0 1.628-.164 2.116-.491.488-.327.706-.763.706-1.308 0-.437-.217-.873-.597-1.254-.38-.382-1.302-.873-2.822-1.527-1.248-.545-2.17-1.2-2.767-1.908-.542-.709-.868-1.527-.868-2.509 0-1.363.543-2.453 1.573-3.216 1.086-.764 2.442-1.145 4.178-1.145 1.52 0 2.767.218 3.636.599v2.836c-.977-.655-2.171-1.036-3.581-1.036-.814 0-1.465.163-2.008.49-.488.327-.76.764-.76 1.309 0 .436.163.818.543 1.199.326.382 1.194.818 2.442 1.418 1.465.654 2.496 1.309 3.092 2.072.597.709.868 1.581.868 2.563 0 1.417-.488 2.562-1.519 3.271-1.031.763-2.441 1.145-4.286 1.145-1.736 0-3.093-.273-4.178-.872v-3.163h.109zm45.142-9.214h-4.34v12.813h-2.93v-12.813h-4.341v-2.454h11.611v2.454zm36.462 6.379c0 4.525-2.062 6.761-6.24 6.761-3.961 0-5.969-2.181-5.969-6.543v-8.996h2.93v8.996c0 2.672 1.031 3.98 3.202 3.98 2.061 0 3.092-1.308 3.092-3.871v-9.105h2.93v8.778h.055zm25.718 6.434v-15.267h5.046c5.371 0 8.084 2.508 8.084 7.47 0 2.344-.759 4.253-2.279 5.67-1.519 1.418-3.472 2.127-5.859 2.127h-4.992zm2.93-12.813v10.359h1.845c1.627 0 2.929-.49 3.852-1.417.922-.927 1.356-2.236 1.356-3.926 0-1.636-.434-2.89-1.356-3.708-.923-.872-2.17-1.308-3.798-1.308h-1.899zm38.035-2.454v15.267h-2.93v-15.267h2.93zm24.958 7.852c0-2.399.706-4.362 2.062-5.834 1.357-1.473 3.201-2.236 5.48-2.236 2.17 0 3.907.709 5.209 2.181 1.302 1.472 1.953 3.326 1.953 5.561 0 2.399-.705 4.308-2.062 5.834-1.356 1.473-3.147 2.236-5.371 2.236-2.17 0-3.961-.709-5.263-2.181s-2.008-3.326-2.008-5.561zm3.093-.164c0 1.527.38 2.835 1.139 3.817.76.981 1.791 1.472 3.093 1.472 1.357 0 2.387-.491 3.147-1.418.76-.927 1.14-2.235 1.14-3.871 0-1.69-.38-2.999-1.086-3.926-.705-.981-1.736-1.417-3.092-1.417-1.357 0-2.388.49-3.202 1.526-.759.982-1.139 2.29-1.139 3.817zm80.844 4.471c1.031.763 2.225 1.145 3.527 1.145.868 0 1.574-.218 2.116-.6.543-.381.814-.981.814-1.745 0-1.581-1.194-2.399-3.581-2.399h-1.356v-2.235h1.248c2.116 0 3.201-.763 3.201-2.236 0-1.363-.814-2.071-2.442-2.071-1.031 0-2.007.327-2.984 1.035v-2.453c1.031-.545 2.225-.818 3.635-.818 1.411 0 2.55.327 3.419.981.868.655 1.302 1.582 1.302 2.781 0 1.963-1.031 3.217-3.039 3.762v.055c1.031.109 1.899.491 2.55 1.145.652.654.977 1.472.977 2.399 0 1.418-.543 2.563-1.573 3.38-1.031.818-2.442 1.254-4.124 1.254-1.519 0-2.767-.272-3.69-.763v-2.617zm42.864-12.159v9.76H614v2.126h-1.845v3.381h-2.658v-3.381h-6.62v-2.235c1.411-1.581 2.659-3.272 3.852-4.962 1.194-1.745 2.116-3.271 2.713-4.689h2.713zm-6.836 9.814h4.178v-5.888c-.434.763-1.031 1.69-1.791 2.781a46.863 46.863 0 01-2.387 3.107zM415.47 250.004c8.519 25.518 35.105 40.184 61.149 33.751 25.989-6.489 42.755-31.897 38.469-58.45-4.287-26.553-28.16-45.418-54.855-43.292v90.782a46.674 46.674 0 01-2.713-.381v-92.909c28.323-3.599 54.583 15.539 59.955 43.728s-11.882 55.724-39.554 62.975c-27.617 7.252-56.103-8.342-65.055-35.549-8.953-27.262 4.666-56.814 31.089-67.555v2.944c-24.633 10.577-37.004 38.439-28.485 63.956z" fill="#E6C783"/></svg>
